Setup/v9/Assets/Themes/Kobe - Light/Pause.svg

<svg width="20" height="20" viewBox="0 0 20 20" fill="none" xmlns="http://www.w3.org/2000/svg">
<path fill-rule="evenodd" clip-rule="evenodd" d="M5 2.5H7.2C7.75228 2.5 8.2 2.94772 8.2 3.5V16.5C8.2 17.0523 7.75228 17.5 7.2 17.5H5C4.44772 17.5 4 17.0523 4 16.5V3.5C4 2.94772 4.44772 2.5 5 2.5ZM3 3.5C3 2.39543 3.89543 1.5 5 1.5H7.2C8.30457 1.5 9.2 2.39543 9.2 3.5V16.5C9.2 17.6046 8.30457 18.5 7.2 18.5H5C3.89543 18.5 3 17.6046 3 16.5V3.5ZM13.2667 2.5H15.4667C16.019 2.5 16.4667 2.94772 16.4667 3.5V16.5C16.4667 17.0523 16.019 17.5 15.4667 17.5H13.2667C12.7144 17.5 12.2667 17.0523 12.2667 16.5V3.5C12.2667 2.94772 12.7144 2.5 13.2667 2.5ZM11.2667 3.5C11.2667 2.39543 12.1621 1.5 13.2667 1.5H15.4667C16.5712 1.5 17.4667 2.39543 17.4667 3.5V16.5C17.4667 17.6046 16.5712 18.5 15.4667 18.5H13.2667C12.1621 18.5 11.2667 17.6046 11.2667 16.5V3.5Z" fill="black"/>
</svg>

<svg xmlns="http://www.w3.org/2000/svg" width="20" height="20" fill="none"><path fill="#000" fill-rule="evenodd" d="M5 2.5h2.2a1 1 0 0 1 1 1v13a1 1 0 0 1-1 1H5a1 1 0 0 1-1-1v-13a1 1 0 0 1 1-1Zm-2 1a2 2 0 0 1 2-2h2.2a2 2 0 0 1 2 2v13a2 2 0 0 1-2 2H5a2 2 0 0 1-2-2v-13Zm10.267-1h2.2a1 1 0 0 1 1 1v13a1 1 0 0 1-1 1h-2.2a1 1 0 0 1-1-1v-13a1 1 0 0 1 1-1Zm-2 1a2 2 0 0 1 2-2h2.2a2 2 0 0 1 2 2v13a2 2 0 0 1-2 2h-2.2a2 2 0 0 1-2-2v-13Z" clip-rule="evenodd"/></svg>
